src/components/00-materials/images-raw/Symbol Dollar.svg

<svg width="96" height="96" viewBox="0 0 96 96" fill="none" xmlns="http://www.w3.org/2000/svg">
<path d="M69 61.2C68.979 59.4562 68.5437 57.7424 67.73 56.2C66.1746 53.3533 63.8029 51.0373 60.92 49.55L51 44V29.24C55.34 29.96 58.37 32.15 58.88 34.24C59.0263 34.8901 59.301 35.5044 59.6881 36.0468C60.0752 36.5892 60.5668 37.0487 61.134 37.3984C61.7012 37.7481 62.3326 37.9809 62.9911 38.0831C63.6496 38.1854 64.3218 38.1549 64.9683 37.9936C65.6149 37.8323 66.2227 37.5434 66.7559 37.1439C67.2892 36.7443 67.7373 36.2422 68.0738 35.6671C68.4102 35.0919 68.6283 34.4553 68.7153 33.7947C68.8022 33.134 68.7562 32.4626 68.58 31.82C66.89 25 59.85 20.09 51 19.17V15C51 14.2044 50.6839 13.4413 50.1213 12.8787C49.5587 12.3161 48.7956 12 48 12C47.2044 12 46.4413 12.3161 45.8787 12.8787C45.3161 13.4413 45 14.2044 45 15V19.17C34.7 20.24 27 26.71 27 34.8C27.021 36.5438 27.4563 38.2576 28.27 39.8C29.8289 42.6415 32.2 44.9534 35.08 46.44L45 52.05V66.76C40.66 66.04 37.63 63.85 37.12 61.76C36.9737 61.1099 36.699 60.4956 36.3119 59.9532C35.9248 59.4108 35.4332 58.9513 34.866 58.6016C34.2988 58.2519 33.6674 58.0191 33.0089 57.9169C32.3504 57.8146 31.6782 57.8451 31.0317 58.0064C30.3851 58.1677 29.7773 58.4566 29.2441 58.8561C28.7108 59.2557 28.2627 59.7578 27.9262 60.3329C27.5898 60.9081 27.3717 61.5447 27.2847 62.2053C27.1978 62.866 27.2438 63.5374 27.42 64.18C29.11 71 36.15 75.91 45 76.83V81C45 81.7956 45.3161 82.5587 45.8787 83.1213C46.4413 83.6839 47.2044 84 48 84C48.7956 84 49.5587 83.6839 50.1213 83.1213C50.6839 82.5587 51 81.7956 51 81V76.83C61.3 75.76 69 69.29 69 61.2V61.2ZM40 37.75C38.8603 37.1954 37.8925 36.3417 37.2 35.28C37.105 35.1334 37.0372 34.9707 37 34.8C37 32.57 40.32 30.05 45 29.26V40.58L40 37.75ZM51 66.75V55.42L56 58.25C57.1397 58.8046 58.1075 59.6583 58.8 60.72C58.888 60.868 58.949 61.0306 58.98 61.2C59 63.43 55.68 66 51 66.74V66.75Z" stroke="#00008F" stroke-width="2" stroke-linecap="round" stroke-linejoin="round"/>
</svg>

<svg width="96" height="96" viewBox="0 0 96 96" fill="none" xmlns="http://www.w3.org/2000/svg"><path d="M69 61.2a11 11 0 00-1.27-5 16.25 16.25 0 00-6.81-6.65L51 44V29.24c4.34.72 7.37 2.91 7.88 5a5 5 0 109.7-2.42C66.89 25 59.85 20.09 51 19.17V15a3 3 0 00-6 0v4.17c-10.3 1.07-18 7.54-18 15.63a11 11 0 001.27 5 16.29 16.29 0 006.81 6.64L45 52.05v14.71c-4.34-.72-7.37-2.91-7.88-5a5 5 0 10-9.7 2.42C29.11 71 36.15 75.91 45 76.83V81a3 3 0 006 0v-4.17c10.3-1.07 18-7.54 18-15.63v0zM40 37.75a7 7 0 01-2.8-2.47 1.451 1.451 0 01-.2-.48c0-2.23 3.32-4.75 8-5.54v11.32l-5-2.83zm11 29V55.42l5 2.83a7 7 0 012.8 2.47c.088.148.149.31.18.48.02 2.23-3.3 4.8-7.98 5.54v.01z" stroke="#00008F" stroke-width="2" stroke-linecap="round" stroke-linejoin="round"/></svg>
